16x16/apps/org.gnome.Recipes.svg

<svg xmlns="http://www.w3.org/2000/svg" width="16" height="16" version="1.1">
 <circle style="fill:#caa17d" cx="7.5" cy="7.5" r="7.5"/>
 <path style="fill:#855629" d="m 6,9 0,3.333334 C 6,12.702667 6.2973335,13 6.6666665,13 l 0.666667,0 C 7.7026665,13 8,12.702667 8,12.333334 L 8,9 6,9 Z"/>
 <path style="fill:#f4f4f7" d="m 6,1 c 0,0 4,2.2121592 4,8 L 6,9 Z"/>
 <path style="fill:#e74c3c" d="M 12.5 9 C 12.627836 9 12.748919 9.0135642 12.873047 9.0214844 A 3.5 3.5 0 0 0 12.5 9 z M 12.5 9 A 3.5 3.5 0 0 0 12.162109 9.0195312 C 12.274685 9.0126673 12.384211 9 12.5 9 z M 12.121094 9.0234375 A 3.5 3.5 0 0 0 11.816406 9.0703125 A 3.5 3.5 0 0 1 12.121094 9.0234375 z M 13.021484 9.0429688 A 3.5 3.5 0 0 1 13.263672 9.0878906 A 3.5 3.5 0 0 0 13.021484 9.0429688 z M 11.775391 9.0800781 A 3.5 3.5 0 0 0 11.490234 9.1523438 A 3.5 3.5 0 0 1 11.775391 9.0800781 z M 13.341797 9.1074219 A 3.5 3.5 0 0 1 13.615234 9.1855469 A 3.5 3.5 0 0 0 13.341797 9.1074219 z M 11.400391 9.1816406 A 3.5 3.5 0 0 0 11.158203 9.2714844 A 3.5 3.5 0 0 1 11.400391 9.1816406 z M 13.642578 9.1953125 A 3.5 3.5 0 0 1 13.947266 9.3164062 A 3.5 3.5 0 0 0 13.642578 9.1953125 z M 13.947266 9.3164062 A 3.5 3.5 0 0 1 14.253906 9.4746094 A 3.5 3.5 0 0 0 13.947266 9.3164062 z M 11.095703 9.2988281 A 3.5 3.5 0 0 0 10.832031 9.4277344 A 3.5 3.5 0 0 1 11.095703 9.2988281 z M 10.802734 9.4433594 A 3.5 3.5 0 0 0 10.529297 9.6113281 A 3.5 3.5 0 0 1 10.802734 9.4433594 z M 14.267578 9.4824219 A 3.5 3.5 0 0 1 14.550781 9.6679688 A 3.5 3.5 0 0 0 14.267578 9.4824219 z M 14.550781 9.6679688 A 3.5 3.5 0 0 1 14.816406 9.8808594 A 3.5 3.5 0 0 0 14.550781 9.6679688 z M 10.509766 9.625 A 3.5 3.5 0 0 0 10.25 9.8242188 A 3.5 3.5 0 0 1 10.509766 9.625 z M 10.238281 9.8339844 A 3.5 3.5 0 0 0 9.9902344 10.066406 A 3.5 3.5 0 0 1 10.238281 9.8339844 z M 9.9902344 10.066406 A 3.5 3.5 0 0 0 9.7597656 10.328125 A 3.5 3.5 0 0 1 9.9902344 10.066406 z M 14.84375 9.90625 A 3.5 3.5 0 0 1 15.070312 10.128906 A 3.5 3.5 0 0 0 14.84375 9.90625 z M 15.083984 10.142578 A 3.5 3.5 0 0 1 15.296875 10.402344 A 3.5 3.5 0 0 0 15.083984 10.142578 z M 15.296875 10.402344 A 3.5 3.5 0 0 1 15.492188 10.691406 A 3.5 3.5 0 0 0 15.296875 10.402344 z M 15.492188 10.691406 A 3.5 3.5 0 0 1 15.658203 11 A 3.5 3.5 0 0 0 15.492188 10.691406 z M 15.658203 11 L 9.3417969 11 A 3.5 3.5 0 0 0 9 12.5 A 3.5 3.5 0 0 0 12.5 16 A 3.5 3.5 0 0 0 16 12.5 A 3.5 3.5 0 0 0 15.658203 11 z M 9.7578125 10.330078 A 3.5 3.5 0 0 0 9.5566406 10.613281 A 3.5 3.5 0 0 1 9.7578125 10.330078 z M 9.5566406 10.613281 A 3.5 3.5 0 0 0 9.3828125 10.917969 A 3.5 3.5 0 0 1 9.5566406 10.613281 z"/>
 <path style="fill:#a6ef4d" d="M 12 8 L 12 9 L 12.5 9 L 13 9 L 13 8 L 12 8 z M 12.5 9 C 12.380208 9 12.267086 9.0128169 12.150391 9.0195312 A 3.5 3.5 0 0 0 9.3417969 11 L 11 11 L 11.75 12 L 12.5 13 L 13.25 12 L 14 11 L 15.658203 11 A 3.5 3.5 0 0 0 12.878906 9.0214844 C 12.752736 9.0136126 12.629837 9 12.5 9 z"/>
</svg>

<svg xmlns="http://www.w3.org/2000/svg" width="16" height="16"><circle style="fill:#caa17d" cx="7.5" cy="7.5" r="7.5"/><path style="fill:#855629" d="M6 9v3.333c0 .37.297.667.667.667h.666c.37 0 .667-.297.667-.667V9H6z"/><path style="fill:#f4f4f7" d="M6 1s4 2.212 4 8H6z"/><path style="fill:#e74c3c" d="M12.5 9c.128 0 .249.014.373.021A3.5 3.5 0 0 0 12.5 9zm0 0a3.5 3.5 0 0 0-.338.02c.113-.007.222-.02.338-.02zm-.379.023a3.5 3.5 0 0 0-.305.047 3.5 3.5 0 0 1 .305-.047zm.9.02a3.5 3.5 0 0 1 .243.045 3.5 3.5 0 0 0-.243-.045zm-1.246.037a3.5 3.5 0 0 0-.285.072 3.5 3.5 0 0 1 .285-.072zm1.567.027a3.5 3.5 0 0 1 .273.079 3.5 3.5 0 0 0-.273-.079zm-1.942.075a3.5 3.5 0 0 0-.242.09 3.5 3.5 0 0 1 .242-.09zm2.243.013a3.5 3.5 0 0 1 .304.121 3.5 3.5 0 0 0-.304-.12zm.304.121a3.5 3.5 0 0 1 .307.159 3.5 3.5 0 0 0-.307-.159zM11.096 9.3a3.5 3.5 0 0 0-.264.129 3.5 3.5 0 0 1 .264-.13zm-.293.144a3.5 3.5 0 0 0-.274.168 3.5 3.5 0 0 1 .274-.168zm3.465.04a3.5 3.5 0 0 1 .283.185 3.5 3.5 0 0 0-.283-.186zm.283.185a3.5 3.5 0 0 1 .265.213 3.5 3.5 0 0 0-.265-.213zm-4.041-.043a3.5 3.5 0 0 0-.26.2 3.5 3.5 0 0 1 .26-.2zm-.272.209a3.5 3.5 0 0 0-.248.232 3.5 3.5 0 0 1 .248-.232zm-.248.232a3.5 3.5 0 0 0-.23.262 3.5 3.5 0 0 1 .23-.262zm4.854-.16a3.5 3.5 0 0 1 .226.223 3.5 3.5 0 0 0-.226-.223zm.24.237a3.5 3.5 0 0 1 .213.26 3.5 3.5 0 0 0-.213-.26zm.213.26a3.5 3.5 0 0 1 .195.288 3.5 3.5 0 0 0-.195-.289zm.195.288a3.5 3.5 0 0 1 .166.309 3.5 3.5 0 0 0-.166-.309zm.166.309H9.342A3.5 3.5 0 0 0 9 12.5a3.5 3.5 0 0 0 3.5 3.5 3.5 3.5 0 0 0 3.5-3.5 3.5 3.5 0 0 0-.342-1.5zm-5.9-.67a3.5 3.5 0 0 0-.201.283 3.5 3.5 0 0 1 .2-.283zm-.201.283a3.5 3.5 0 0 0-.174.305 3.5 3.5 0 0 1 .174-.305z"/><path style="fill:#a6ef4d" d="M12 8v1h1V8h-1zm.5 1c-.12 0-.233.013-.35.02A3.5 3.5 0 0 0 9.342 11H11l.75 1 .75 1 .75-1 .75-1h1.658a3.5 3.5 0 0 0-2.78-1.979C12.754 9.014 12.63 9 12.5 9z"/></svg>
